X:1144
T:Pollonesse 1832-20
O:Södermanland
R:Slängpolska
B:Notbok 1832 från Sörmlands museum
N:[[http://www.sormlandsmusikarkiv.se/noter/1832/1832.html]]
Z:Jonas Brunskog (via midi)
M: 3/4
L: 1/8
Q:1/4=110
K:D
g|:fg a2 ed|cB/2c/2 d2 AG|FE DC DF|[1ED A,3g:|[2ED A,3c|]
|:BA B2 c2|d>e dc/2B/2 A>F|G2 EF Df|[1ed/2c/2 d2Dc:|[2ed/2c/2 d2D2|]
(:musicend:)

(:music:)
